img/icons/arrow_left_hover.svg

<svg xmlns="http://www.w3.org/2000/svg"
 xmlns:xlink="http://www.w3.org/1999/xlink"
 width="22px" height="11px"  viewBox="0 0 22 11">
<path fill-rule="evenodd"  fill="#d60b51"
 d="M21.000015,5.000061 C21.000015,5.000061 21.000015,6.000061 21.000015,6.000061 C21.000015,6.000061 1.9999619,6.000061 1.9999619,6.000061 C1.9999619,6.000061 1.9999619,5.000061 1.9999619,5.000061 C1.9999619,5.000061 21.000015,5.000061 21.000015,5.000061 ZM1.6464539,5.3535156 C1.6464539,5.3535156 2.3535843,4.6466064 2.3535843,4.6466064 C2.3535843,4.6466064 6.3535233,8.646545 6.3535233,8.646545 C6.3535233,8.646545 5.6465073,9.3533325 5.6465073,9.3533325 C5.6465073,9.3533325 1.6464539,5.3535156 1.6464539,5.3535156 ZM6.3535233,2.3534546 C6.3535233,2.3534546 5.6465073,1.6466064 5.6465073,1.6466064 C5.6465073,1.6466064 1.6464539,5.6466064 1.6464539,5.6466064 C1.6464539,5.6466064 2.3535843,6.3533936 2.3535843,6.3533936 C2.3535843,6.3533936 6.3535233,2.3534546 6.3535233,2.3534546 Z"/>
</svg>

<svg xmlns="http://www.w3.org/2000/svg" width="22" height="11"><path fill-rule="evenodd" fill="#d60b51" d="M21 5v1H2V5h19zm-19.354.354l.708-.707 4 4-.707.706-4-4zm4.708-3l-.707-.707-4 4 .707.706 4-4z"/></svg>
